assets/svg/share-twitter.svg

<?xml version="1.0" encoding="UTF-8"?>
<svg width="35px" height="29px" viewBox="0 0 35 29" version="1.1" xmlns="http://www.w3.org/2000/svg" xmlns:xlink="http://www.w3.org/1999/xlink">
    <!-- Generator: Sketch 43.2 (39069) - http://www.bohemiancoding.com/sketch -->
    <title>share-twitter</title>
    <desc>Created with Sketch.</desc>
    <defs></defs>
    <g id="Page-1" stroke="none" stroke-width="1" fill="none" fill-rule="evenodd">
        <g id="share-twitter" fill-rule="nonzero" fill="#E0004D">
            <path d="M11.49,28.55 C7.67487213,28.652914 3.92866766,27.5199327 0.81,25.32 C0.525992359,25.1018527 0.427020677,24.7183375 0.57,24.39 C0.708986648,24.0600089 1.05710368,23.8693734 1.41,23.93 C2.03538934,24.0258452 2.66731438,24.0726545 3.3,24.07 C5.39128993,24.1400036 7.45383082,23.5676572 9.21,22.43 C6.82005217,21.8043746 4.94490168,19.9520918 4.29,17.57 C4.2070968,17.3044768 4.27187111,17.0148976 4.46,16.81 C4.53705191,16.7230657 4.63277507,16.654692 4.74,16.61 C2.88180029,15.1754278 1.85550346,12.9130801 2,10.57 C2.00635525,10.2811957 2.17180568,10.0195531 2.43,9.89 C2.65212173,9.77265774 2.91787827,9.77265774 3.14,9.89 C1.62804146,7.55490531 1.56608973,4.56573446 2.98,2.17 C3.10615433,1.95315401 3.33003837,1.81136079 3.58,1.79 C3.83118881,1.76479774 4.07849735,1.86596942 4.24,2.06 C4.29,2.13 9.75,8.53 16.47,8.7 C16.4363901,8.40787521 16.4196956,8.11405174 16.42,7.82 C16.4033694,3.76845924 19.6685186,0.467527602 23.72,0.44 C25.5824238,0.435865175 27.3741999,1.1525756 28.72,2.44 C30.0473221,2.38378288 31.3280848,1.93481989 32.4,1.15 C32.62704,0.984194424 32.9270657,0.957269046 33.18,1.08 C33.4329407,1.20171107 33.6009761,1.44994527 33.62,1.73 C33.5879791,2.62463126 33.2326939,3.4773158 32.62,4.13 C32.8939669,4.04648484 33.1536122,3.92172024 33.39,3.76 C33.6577484,3.56327211 34.0222516,3.56327211 34.29,3.76 C34.5638909,3.9483373 34.6883356,4.28955655 34.6,4.61 C34.53,4.87 34.08,5.89 31.25,8.51 C31.25,11 30.7,24.66 15.63,28.22 C14.2645962,28.468846 12.8775832,28.579405 11.49,28.55 Z M4.32,25.55 C6.58470392,26.5217446 9.02566749,27.0153844 11.49,27 C12.7240076,27.0094796 13.9561504,26.9023367 15.17,26.68 C30.41,23.08 29.59,8.35 29.58,8.21 C29.56297,7.97287471 29.6550124,7.74092784 29.83,7.58 C30.52,6.94 31.07,6.41 31.5,5.97 C30.82,6.09 30.27,6.14 30.15,6.15 C29.8075976,6.17589731 29.4894281,5.97194251 29.37,5.65 C29.2446347,5.32774949 29.3463916,4.9614245 29.62,4.75 C30.0829093,4.39417088 30.5175441,4.00299953 30.92,3.58 C30.1225479,3.8412587 29.2891494,3.97622203 28.45,3.98 L28.33,3.98 C28.1266935,3.97763428 27.9325745,3.89495395 27.79,3.75 C26.7134298,2.62828542 25.2247445,1.9959555 23.67,2 C20.4706447,2.02202185 17.8933754,4.63061206 17.91,7.83 C17.9099972,8.31890545 17.970456,8.80593485 18.09,9.28 C18.1469198,9.50379175 18.1030751,9.74128423 17.97,9.93 C17.8347735,10.1186264 17.6216798,10.2361953 17.39,10.25 C11.03,10.61 5.75,5.93 3.81,3.94 C2.36,7.77 5.69,10.69 5.81,10.83 C6.04194838,11.0295555 6.13579785,11.3462975 6.05,11.64 C5.96988777,11.935241 5.72259732,12.1550547 5.42,12.2 C4.787983,12.2725045 4.14790976,12.1830319 3.56,11.94 C3.9558611,14.1744056 5.63512526,15.9635282 7.84,16.5 C8.19018683,16.5534195 8.46040296,16.8361096 8.49797519,17.1883493 C8.53554743,17.540589 8.33103982,17.8739163 8,18 C7.42679039,18.2344413 6.80819506,18.3369709 6.19,18.3 C7.1326701,20.0245456 8.91576097,21.1232946 10.88,21.19 C11.1872468,21.1879442 11.4663073,21.3687439 11.59,21.65 C11.7138275,21.9314398 11.6631093,22.2591575 11.46,22.49 C9.57566834,24.4226597 7.00855344,25.5392649 4.31,25.6 L4.32,25.55 Z" id="Shape"></path>
        </g>
    </g>
</svg>

<svg id="Layer_1" data-name="Layer 1" xmlns="http://www.w3.org/2000/svg" viewBox="0 0 34.12 28.12">
  <title>share-twitter</title>
  <g id="Page-1">
    <g id="share-twitter">
      <path id="Shape" d="M11.49,28.55A17.7,17.7,0,0,1,.81,25.32a.78.78,0,0,1-.24-.93.77.77,0,0,1,.84-.46,12.14,12.14,0,0,0,1.89.14,10.24,10.24,0,0,0,5.91-1.64,6.92,6.92,0,0,1-4.92-4.86.78.78,0,0,1,.17-.76.77.77,0,0,1,.28-.2,7.08,7.08,0,0,1-2.74-6,.78.78,0,0,1,.43-.68.76.76,0,0,1,.71,0A7.34,7.34,0,0,1,3,2.17a.77.77,0,0,1,.6-.38.76.76,0,0,1,.66.27c.05.07,5.51,6.47,12.23,6.64a7.63,7.63,0,0,1,0-.88A7.35,7.35,0,0,1,23.72.44a7.21,7.21,0,0,1,5,2A6.71,6.71,0,0,0,32.4,1.15a.76.76,0,0,1,.78-.07.78.78,0,0,1,.44.65,3.7,3.7,0,0,1-1,2.4,2.82,2.82,0,0,0,.77-.37.76.76,0,0,1,.9,0,.78.78,0,0,1,.31.85c-.07.26-.52,1.28-3.35,3.9,0,2.49-.55,16.15-15.62,19.71A20.65,20.65,0,0,1,11.49,28.55Zm-7.17-3A17.9,17.9,0,0,0,11.49,27a19.59,19.59,0,0,0,3.68-.32C30.41,23.08,29.59,8.35,29.58,8.21a.78.78,0,0,1,.25-.63c.69-.64,1.24-1.17,1.67-1.61-.68.12-1.23.17-1.35.18a.77.77,0,0,1-.78-.5.78.78,0,0,1,.25-.9,11.3,11.3,0,0,0,1.3-1.17,8,8,0,0,1-2.47.4h-.12a.77.77,0,0,1-.54-.23A5.69,5.69,0,0,0,23.67,2a5.8,5.8,0,0,0-5.76,5.83,5.93,5.93,0,0,0,.18,1.45.79.79,0,0,1-.12.65.77.77,0,0,1-.58.32C11,10.61,5.75,5.93,3.81,3.94c-1.45,3.83,1.88,6.75,2,6.89a.78.78,0,0,1,.24.81.77.77,0,0,1-.63.56,3.75,3.75,0,0,1-1.86-.26A5.72,5.72,0,0,0,7.84,16.5.78.78,0,0,1,8,18a4.13,4.13,0,0,1-1.81.3,5.56,5.56,0,0,0,4.69,2.89.77.77,0,0,1,.71.46.79.79,0,0,1-.13.84A10.31,10.31,0,0,1,4.31,25.6Z" transform="translate(-0.51 -0.44)" style="fill: #e0004d"/>
    </g>
  </g>
</svg>
